public/icons/hamburg.svg

<svg width="80" height="80" viewBox="0 0 80 80" fill="none" xmlns="http://www.w3.org/2000/svg">
<path d="M15.8017 8.33174C10.7012 12.0949 6.57469 17.2105 3.81527 23.1917C1.05586 29.1729 -0.244581 35.8201 0.0378951 42.5003C0.0971024 49.6864 2.03042 56.7078 5.61472 62.7538C9.19902 68.7999 14.2879 73.624 20.2942 76.6691C25.3418 78.6978 30.6747 79.767 36.0579 79.8296C43.0884 80.44 50.1578 79.406 56.7873 76.7973C61.5128 74.4364 65.7603 71.0847 69.2843 66.9355C72.8084 62.7863 75.5393 57.9218 77.3197 52.6227C78.9873 48.3163 79.8962 43.7096 79.9995 39.0407C80.1571 1.96755 42.5607 -9.6923 15.8017 8.33174Z" fill="#F5CDE2"/>
<path d="M32.0003 53.3334V29.3334C32.0003 28.6262 32.2813 27.9479 32.7814 27.4478C33.2815 26.9477 33.9597 26.6667 34.667 26.6667H45.3337C46.0409 26.6667 46.7192 26.9477 47.2193 27.4478C47.7194 27.9479 48.0003 28.6262 48.0003 29.3334V53.3334M32.0003 53.3334H48.0003M32.0003 53.3334H29.3337C28.6264 53.3334 27.9481 53.0525 27.448 52.5524C26.9479 52.0523 26.667 51.374 26.667 50.6667V42.6667C26.667 41.9595 26.9479 41.2812 27.448 40.7811C27.9481 40.281 28.6264 40.0001 29.3337 40.0001H32.0003M48.0003 53.3334H50.667C51.3742 53.3334 52.0525 53.0525 52.5526 52.5524C53.0527 52.0523 53.3337 51.374 53.3337 50.6667V38.6667C53.3337 37.9595 53.0527 37.2812 52.5526 36.7811C52.0525 36.281 51.3742 36.0001 50.667 36.0001H48.0003M37.3337 32.0001H42.667M37.3337 37.3334H42.667M37.3337 42.6667H42.667M37.3337 48.0001H42.667" stroke="#235753" stroke-width="2" stroke-linecap="round" stroke-linejoin="round"/>
</svg>

<svg width="80" height="80" fill="none" xmlns="http://www.w3.org/2000/svg"><path d="M15.802 8.332c-5.1 3.763-9.227 8.878-11.987 14.86C1.055 29.172-.245 35.82.038 42.5c.06 7.186 1.992 14.208 5.577 20.254 3.584 6.046 8.673 10.87 14.68 13.915a43.59 43.59 0 0 0 15.763 3.16c7.03.611 14.1-.423 20.73-3.032 4.725-2.36 8.972-5.712 12.496-9.861 3.524-4.15 6.255-9.014 8.036-14.313A40.107 40.107 0 0 0 80 39.04C80.156 1.968 42.56-9.692 15.802 8.33z" fill="#F5CDE2"/><path d="M32 53.333v-24a2.667 2.667 0 0 1 2.667-2.666h10.667A2.667 2.667 0 0 1 48 29.333v24m-16 0h16m-16 0h-2.666a2.667 2.667 0 0 1-2.667-2.666v-8A2.667 2.667 0 0 1 29.334 40H32m16 13.333h2.667a2.667 2.667 0 0 0 2.667-2.666v-12A2.667 2.667 0 0 0 50.667 36H48m-10.666-4h5.333m-5.333 5.333h5.333m-5.333 5.334h5.333M37.334 48h5.333" stroke="#235753" stroke-width="2" stroke-linecap="round" stroke-linejoin="round"/></svg>
